X:1
T:Connaughtman's Rambles
M:6/8
L:1/8
R:Jig
K:D
%%printtempo 0
Q:160
A|\
"D"FAA BAA|"G"BAB "D"dAG|FGA dfe |"G"dBB "A"BAG|
"D"FAA dAA|"G"BAB "D"def|"G" gfe dfe |"Em"dBB "A"B2:|
|:G|\
"D"fbb faa |"G"fed "A"dfg |"D"fbb faa |"G"fed "A"e2g|
"D"fbb "Bm"faa |"D"fed def |""gfe dfe|dBB B2:|
